brandFactory_export/3.Masa/Emergencia_Cruz_salud_3Masa.svg

<?xml version="1.0" encoding="UTF-8"?>
<svg width="24px" height="24px" viewBox="0 0 24 24" version="1.1" xmlns="http://www.w3.org/2000/svg" xmlns:xlink="http://www.w3.org/1999/xlink">
    <title>3.Masa/Emergencia_Cruz_salud_3Masa</title>
    <g id="Symbols" stroke="none" stroke-width="1" fill="none" fill-rule="evenodd">
        <g id="3.Masa/Emergencia_Cruz_salud_3Masa" fill="#5CB615" fill-rule="nonzero">
            <path d="M21.9327731,7.88571429 L15.7310924,7.88907563 L15.7277311,1.69411765 C15.7277311,0.810084034 15.0386555,0.00336134454 14.2823529,0.00336134454 L9.32773109,0 C8.57142857,0 7.88235294,0.806722689 7.88235294,1.6907563 L7.88571429,7.88907563 L1.6907563,7.89243697 C0.789915966,7.89243697 0,8.56806723 0,9.33781513 L0,14.292437 C0,15.0621849 0.789915966,15.7378151 1.6907563,15.7378151 L7.89243697,15.7344538 L7.89579832,21.9294118 C7.89579832,22.8302521 8.57142857,23.6201681 9.34117647,23.6201681 L14.2957983,23.6201681 C15.0655462,23.6201681 15.7411765,22.8302521 15.7411765,21.9294118 L15.7378151,15.7277311 L21.9327731,15.7243697 C22.8168067,15.7243697 23.6235294,15.0352941 23.6235294,14.2789916 L23.6235294,9.32436975 C23.6235294,8.57142857 22.8168067,7.88571429 21.9327731,7.88571429" id="Path"></path>
        </g>
    </g>
</svg>

<svg width="24" height="24" viewBox="0 0 24 24" xmlns="http://www.w3.org/2000/svg"><path d="M21.933 7.886l-6.202.003-.003-6.195c0-.884-.69-1.69-1.446-1.69L9.328 0C8.57 0 7.882.807 7.882 1.69l.004 6.2-6.195.002C.79 7.892 0 8.568 0 9.338v4.954c0 .77.79 1.446 1.69 1.446l6.202-.004.004 6.195c0 .901.675 1.691 1.445 1.691h4.955c.77 0 1.445-.79 1.445-1.69l-.003-6.202 6.195-.004c.884 0 1.69-.689 1.69-1.445V9.324c0-.753-.806-1.438-1.69-1.438" fill="#5CB615" fill-rule="nonzero"/></svg>
